remix/Document/file-music-fill.svg

<svg viewBox="0 0 24 24" fill="currentColor" xmlns="http://www.w3.org/2000/svg"><path d="M16 2L21 7V21.0082C21 21.556 20.5551 22 20.0066 22H3.9934C3.44476 22 3 21.5447 3 21.0082V2.9918C3 2.44405 3.44495 2 3.9934 2H16ZM11 12.05C10.8384 12.0172 10.6712 12 10.5 12C9.11929 12 8 13.1193 8 14.5C8 15.8807 9.11929 17 10.5 17C11.8807 17 13 15.8807 13 14.5V10H16V8H11V12.05Z"/></svg>

<svg viewBox="0 0 24 24" xmlns="http://www.w3.org/2000/svg"><path fill="none" d="M0 0h24v24H0Z"/><path d="M16 2l5 5v14.008h0c-.01.54-.45.99-1 .99H3.98v0c-.55-.01-.99-.45-1-1V2.98c-.001-.55.44-1 .99-1h12Zm-5 10.05v0c-1.36-.28-2.68.59-2.95 1.94 -.28 1.35.59 2.67 1.94 2.94s2.67-.6 2.94-1.95c.03-.17.05-.34.05-.5v-4.5h3v-2h-5v4.05Z"/></svg>
